packages/foundations/assets/icons/functional/images/maps/navigation_to_left_32.svg

<svg width="32" height="32" viewBox="0 0 32 32" fill="none" xmlns="http://www.w3.org/2000/svg">
<g clip-path="url(#clip0_2213_5380)">
<path fill-rule="evenodd" clip-rule="evenodd" d="M16.5 10.9C19.2614 10.9 21.5 13.1386 21.5 15.9V26.9C21.5 27.4523 21.9477 27.9 22.5 27.9C23.0523 27.9 23.5 27.4523 23.5 26.9V15.9C23.5 12.034 20.366 8.89998 16.5 8.89998H11.922L15.0014 5.82373C15.2005 5.62481 15.3 5.3817 15.3 5.0944C15.3 4.56401 14.8687 4.09998 14.3047 4.09998C14.0393 4.09998 13.7739 4.1994 13.6081 4.39824L8.71937 9.28066C8.5731 9.44536 8.5 9.67267 8.5 9.89998C8.5 10.132 8.5995 10.3972 8.7986 10.5961L13.8081 15.6017C13.9739 15.7674 14.2393 15.9 14.5047 15.9C15.0687 15.9 15.5 15.4359 15.5 14.9056C15.5 14.6404 15.4005 14.3752 15.2014 14.1762L11.922 10.9H16.5Z" fill="#1A1C1F"/>
</g>
<defs>
<clipPath id="clip0_2213_5380">
<rect width="32" height="32" fill="white"/>
</clipPath>
</defs>
</svg>

<svg xmlns="http://www.w3.org/2000/svg" width="32" height="32" fill="none"><g clip-path="url(#a)"><path fill="#1A1C1F" fill-rule="evenodd" d="M16.5 10.9a5 5 0 0 1 5 5v11a1 1 0 1 0 2 0v-11a7 7 0 0 0-7-7h-4.578l3.08-3.076a1 1 0 0 0 .298-.73 1 1 0 0 0-.995-.994c-.266 0-.531.1-.697.298L8.72 9.281A.94.94 0 0 0 8.5 9.9c0 .232.1.497.299.696l5.01 5.006c.165.165.43.298.696.298a1 1 0 0 0 .995-.994c0-.266-.1-.53-.299-.73L11.922 10.9z" clip-rule="evenodd"/></g><defs><clipPath id="a"><path fill="#fff" d="M0 0h32v32H0z"/></clipPath></defs></svg>
